X:068 
T:Grandpa Tommy's Ceili Band 2 (reel)
B:CRE5.129(ii) (Banna CÃÂÃÂÃÂÃÂ©ilÃÂÃÂÃÂÃÂ­ Daideo TaimÃÂÃÂÃÂÃÂ­)
F:file ID: cre.5/068grand_t2
C:Martin Mulhaire
N:This is Martin's "ornate" version which he provided to
Breathnach specifically for CRE5. Great challenge for box 
players, fun to listen to for everyone else!
L:1/8
Q:180
M:C
R:reel
K:G
D|GB~B2 dB~B2|GABG (3ABA GE|DEGA (3BcB Bd|ea~a2 gedB|
GB~B2 dB~B2|GABG (3ABA GE|DEGA Bgfg|1 ecAF G3:|2 ecAF G2||
|:Bd|(3gfg (3agf gfed|Bd (3d^cd Bdef|(3gfg (3agf gfed|eaag agef|
g2 (3agf gfed|Bd~d2 gdBd|c3B cBAG|1 FDEF G2:|2 FDEF HG4|]

%%%

